build/assets/img/stage-promotion/image-element-6.svg

<svg width="66" height="86" viewBox="0 0 66 86" fill="none" xmlns="http://www.w3.org/2000/svg">
<g filter="url(#filter0_di)">
<path d="M44.5189 22.4518L12.7833 34.0791C10.6165 34.8756 8.74518 36.4168 7.57819 38.3658C6.41119 40.3148 6.04346 42.513 6.55537 44.4801L9.74296 56.5296C10.2666 58.4925 11.6266 60.0602 13.5258 60.8901C15.425 61.72 17.709 61.7447 19.8785 60.9587L27.5506 58.1534C32.0119 59.9308 34.8876 61.7612 36.1209 61.3455C37.3543 60.9298 39.0611 56.9436 41.6408 53.0356L51.5986 49.3037C53.7654 48.5071 55.6367 46.9659 56.8037 45.0169C57.9707 43.068 58.3384 40.8697 57.8265 38.9026L54.6469 26.8483C54.1113 24.8973 52.7483 23.3421 50.8529 22.5193C48.9575 21.6965 46.6821 21.6722 44.5189 22.4518Z" fill="url(#paint0_linear)"/>
<path d="M22.3054 44.7512L24.5434 52.8778C24.6936 53.4234 25.3226 53.6884 25.9481 53.4696L29.3096 52.2939C29.9352 52.0751 30.3204 51.4555 30.1702 50.9098L27.9323 42.7833C27.782 42.2376 27.1531 41.9727 26.5275 42.1914L23.1661 43.3671C22.5405 43.5859 22.1552 44.2056 22.3054 44.7512Z" fill="#FCFCFC"/>
<path d="M40.6102 38.3472L40.4398 38.45C40.821 38.232 41.1301 37.9044 41.3141 37.5233C41.4982 37.1421 41.5458 36.7311 41.4487 36.3604C41.3517 35.9898 41.116 35.6826 40.7821 35.4915C40.4482 35.3003 40.0368 35.237 39.6183 35.3125L34.0956 37.3353C34.6823 35.8887 34.8938 34.3774 34.7103 32.9424C34.1807 30.9284 32.6822 30.2483 31.8534 30.4162C31.5014 30.474 31.1655 30.6544 30.9124 30.9213C30.6594 31.1882 30.5079 31.5221 30.4881 31.8566C30.4209 32.5516 31.1216 33.5518 31.0808 34.0223C30.9972 34.7462 30.0289 36.0229 28.8506 38.574C28.2429 39.9781 28.1403 41.4687 28.5604 42.7902L29.2925 45.5738L30.0125 48.3551L30.3553 49.6471C30.3885 49.7754 30.4491 49.8922 30.5337 49.991C30.6183 50.0898 30.7252 50.1686 30.8484 50.2229C30.9715 50.2772 31.1084 50.306 31.2513 50.3076C31.3942 50.3092 31.5403 50.2835 31.6812 50.2321L41.9451 46.4776C42.1135 46.4211 42.2733 46.3342 42.4149 46.222C42.5565 46.1099 42.677 45.9749 42.7693 45.8249C42.8617 45.675 42.9239 45.5132 42.9524 45.3492C42.9808 45.1852 42.9749 45.0223 42.935 44.8703C42.895 44.7182 42.8219 44.58 42.7199 44.464C42.6178 44.3479 42.4891 44.2564 42.3412 44.1947C42.1932 44.1331 42.0292 44.1026 41.8589 44.1051C41.6885 44.1077 41.5152 44.1431 41.3493 44.2094L41.5117 44.1115C41.7224 44.0461 41.9234 43.9419 42.102 43.8053C42.2807 43.6686 42.4335 43.5024 42.5508 43.3168C42.6682 43.1312 42.7478 42.9301 42.7847 42.7259C42.8215 42.5217 42.8149 42.3187 42.7653 42.1293C42.7156 41.9399 42.6239 41.7681 42.4958 41.6245C42.3677 41.4809 42.2059 41.3684 42.0204 41.294C41.8348 41.2197 41.6294 41.1849 41.4167 41.192C41.204 41.199 40.9886 41.2477 40.7836 41.335L41.3504 41.1258C41.5612 41.0605 41.7621 40.9563 41.9408 40.8196C42.1195 40.683 42.2722 40.5167 42.3896 40.3311C42.507 40.1455 42.5865 39.9445 42.6234 39.7403C42.6603 39.5361 42.6537 39.333 42.604 39.1436C42.5544 38.9542 42.4627 38.7824 42.3346 38.6388C42.2065 38.4952 42.0447 38.3827 41.8591 38.3084C41.6736 38.234 41.4682 38.1993 41.2555 38.2063C41.0428 38.2134 40.8273 38.262 40.6223 38.3494L40.6102 38.3472Z" fill="#FCFCFC"/>
</g>
<defs>
<filter id="filter0_di" x="4.33008" y="19.8842" width="59.7221" height="47.6467" filterUnits="userSpaceOnUse" color-interpolation-filters="sRGB">
<feFlood flood-opacity="0" result="BackgroundImageFix"/>
<feColorMatrix in="SourceAlpha" type="matrix" values="0 0 0 0 0 0 0 0 0 0 0 0 0 0 0 0 0 0 127 0"/>
<feOffset dx="2" dy="2"/>
<feGaussianBlur stdDeviation="2"/>
<feColorMatrix type="matrix" values="0 0 0 0 0 0 0 0 0 0 0 0 0 0 0 0 0 0 0.15 0"/>
<feBlend mode="normal" in2="BackgroundImageFix" result="effect1_dropShadow"/>
<feBlend mode="normal" in="SourceGraphic" in2="effect1_dropShadow" result="shape"/>
<feColorMatrix in="SourceAlpha" type="matrix" values="0 0 0 0 0 0 0 0 0 0 0 0 0 0 0 0 0 0 127 0" result="hardAlpha"/>
<feOffset dx="-2" dy="-2"/>
<feGaussianBlur stdDeviation="2"/>
<feComposite in2="hardAlpha" operator="arithmetic" k2="-1" k3="1"/>
<feColorMatrix type="matrix" values="0 0 0 0 0 0 0 0 0 0 0 0 0 0 0 0 0 0 0.2 0"/>
<feBlend mode="normal" in2="shape" result="effect2_innerShadow"/>
</filter>
<linearGradient id="paint0_linear" x1="12856.8" y1="15558.8" x2="14248.9" y2="17103.9" gradientUnits="userSpaceOnUse">
<stop stop-color="#65BBFF"/>
<stop offset="1" stop-color="#315DA4"/>
</linearGradient>
</defs>
</svg>

<svg width="66" height="86" fill="none" xmlns="http://www.w3.org/2000/svg"><g filter="url(#filter0_di)"><path d="M44.519 22.452L12.783 34.079c-2.166.797-4.038 2.338-5.205 4.287-1.167 1.949-1.535 4.147-1.023 6.114l3.188 12.05c.524 1.962 1.884 3.53 3.783 4.36 1.899.83 4.183.855 6.352.069l7.673-2.806c4.46 1.778 7.337 3.608 8.57 3.193 1.233-.416 2.94-4.402 5.52-8.31l9.958-3.732c2.166-.797 4.038-2.338 5.205-4.287 1.167-1.949 1.534-4.147 1.023-6.114l-3.18-12.055c-.536-1.95-1.899-3.506-3.794-4.329-1.895-.822-4.17-.847-6.334-.067z" fill="url(#paint0_linear)"/><path d="M22.305 44.751l2.238 8.127c.15.545.78.81 1.405.592l3.362-1.176c.625-.219 1.01-.838.86-1.384l-2.238-8.127c-.15-.545-.779-.81-1.404-.592l-3.362 1.176c-.625.219-1.01.839-.86 1.384zm18.305-6.404l-.17.103c.381-.218.69-.546.874-.927.184-.38.232-.792.135-1.163a1.4 1.4 0 00-.667-.868 1.722 1.722 0 00-1.164-.18l-5.522 2.023c.586-1.446.798-2.958.614-4.393-.53-2.014-2.028-2.694-2.857-2.526a1.689 1.689 0 00-.94.505 1.505 1.505 0 00-.425.936c-.067.695.634 1.695.593 2.165-.084.724-1.052 2-2.23 4.552-.608 1.404-.71 2.895-.29 4.216l.732 2.784.72 2.781.342 1.292a.856.856 0 00.493.576c.123.054.26.083.403.085.143.001.29-.025.43-.076l10.264-3.754a1.556 1.556 0 00.824-.653 1.35 1.35 0 00.183-.476 1.127 1.127 0 00-.017-.479.996.996 0 00-.594-.675 1.208 1.208 0 00-.482-.09c-.17.003-.344.038-.51.104l.163-.098a1.905 1.905 0 001.039-.794c.117-.186.197-.387.234-.591.037-.204.03-.407-.02-.597a1.22 1.22 0 00-.745-.835 1.49 1.49 0 00-.603-.102 1.77 1.77 0 00-.633.143l.566-.21a1.901 1.901 0 001.04-.794c.117-.186.197-.387.233-.59.037-.205.03-.408-.019-.597a1.219 1.219 0 00-.745-.836 1.489 1.489 0 00-.604-.102 1.77 1.77 0 00-.633.143l-.012-.002z" fill="#FCFCFC"/></g><defs><linearGradient id="paint0_linear" x1="12856.8" y1="15558.8" x2="14248.9" y2="17103.9" gradientUnits="userSpaceOnUse"><stop stop-color="#65BBFF"/><stop offset="1" stop-color="#315DA4"/></linearGradient><filter id="filter0_di" x="4.33" y="19.884" width="59.722" height="47.647" filterUnits="userSpaceOnUse" color-interpolation-filters="sRGB"><feFlood flood-opacity="0" result="BackgroundImageFix"/><feColorMatrix in="SourceAlpha" values="0 0 0 0 0 0 0 0 0 0 0 0 0 0 0 0 0 0 127 0"/><feOffset dx="2" dy="2"/><feGaussianBlur stdDeviation="2"/><feColorMatrix values="0 0 0 0 0 0 0 0 0 0 0 0 0 0 0 0 0 0 0.15 0"/><feBlend in2="BackgroundImageFix" result="effect1_dropShadow"/><feBlend in="SourceGraphic" in2="effect1_dropShadow" result="shape"/><feColorMatrix in="SourceAlpha" values="0 0 0 0 0 0 0 0 0 0 0 0 0 0 0 0 0 0 127 0" result="hardAlpha"/><feOffset dx="-2" dy="-2"/><feGaussianBlur stdDeviation="2"/><feComposite in2="hardAlpha" operator="arithmetic" k2="-1" k3="1"/><feColorMatrix values="0 0 0 0 0 0 0 0 0 0 0 0 0 0 0 0 0 0 0.2 0"/><feBlend in2="shape" result="effect2_innerShadow"/></filter></defs></svg>
